X:141
T:Bird's Hornpipe
B:Terry "Cuz" Teahan "Sliabh Luachra on Parade" 1980
Z:Patrick Cavanagh
M:4/4
L:1/8
R:Hornpipe
K:D
fe | dBBA BcdB | AFFE F2fe | dBBA Bcde | fgaf e2fe | 
dBBA BcdB | AFEF A2AB | c2cB BAFA | B2BA B2 :| 
| eg | a2ag afdf | a2ag a2fa | b2bd' bafa | b2bd' b4 | 
a2af e2fe | defa b2af | fafe dBAF | B2BA B2 :|| 

